static/img/snake_r.svg

<svg width="486" height="506.001" viewBox="0 0 496 516.001" xmlns="http://www.w3.org/2000/svg">
  <g id="svgGroup" stroke-linecap="round" fill-rule="evenodd" font-size="9pt" stroke="#000" stroke-width="3mm" fill="#000" style="stroke:#000;stroke-width:3mm;fill:#000" transform="translate(5,5)">
    <path d="M 486 493.501 L 474 506.001 Q 441 486.501 418 452.751 Q 395 419.001 395 370.501 Q 395 359.001 397 341.251 Q 399 323.501 401 304.751 Q 403 286.001 403 272.501 Q 403 221.001 388.75 193.501 Q 374.5 166.001 343.5 155.501 Q 312.5 145.001 261 145.001 Q 242.5 145.001 218.75 147.001 Q 195 149.001 171.5 151.251 Q 148 153.501 129.75 155.501 Q 111.5 157.501 104 157.501 Q 88 157.501 79 144.501 Q 70 131.501 70 108.501 Q 70 100.001 72 87.001 Q 74 74.001 77.5 63.001 Q 70.5 65.001 62.5 66.501 Q 54.5 68.001 45 68.001 Q 38 68.001 29 66.751 Q 20 65.501 12 60.251 Q 4 55.001 0 43.001 Q 1 27.501 12 18.001 Q 23 8.501 37.75 4.251 Q 52.5 0.001 64.5 0.001 Q 88 0.001 104 6.751 Q 120 13.501 120 33.001 Q 120 46.501 116.5 56.501 Q 113 66.501 113 76.001 Q 113 91.001 118.25 97.001 Q 123.5 103.001 130.5 103.001 Q 138.5 103.001 155.75 100.001 Q 173 97.001 195.75 93.251 Q 218.5 89.501 243 86.501 Q 267.5 83.501 289.5 83.501 Q 325 83.501 356 88.751 Q 387 94.001 410.75 108.501 Q 434.5 123.001 448 150.001 Q 461.5 177.001 461.5 220.001 Q 461.5 239.501 457.75 259.251 Q 454 279.001 450.25 300.501 Q 446.5 322.001 446.5 346.501 Q 446.5 391.001 457 429.001 Q 467.5 467.001 486 493.501 Z M 472 493.501 L 474 490.501 Q 452.5 456.001 444.5 422.251 Q 436.5 388.501 436.5 349.501 Q 436.5 324.001 440.5 301.251 Q 444.5 278.501 448.25 258.001 Q 452 237.501 452 220.001 Q 452 170.501 431.75 143.001 Q 411.5 115.501 375.5 104.251 Q 339.5 93.001 292 93.001 Q 272 93.001 247.5 95.751 Q 223 98.501 199 102.251 Q 175 106.001 156.75 108.751 Q 138.5 111.501 131 111.501 Q 104 111.501 104 76.001 Q 104 71.501 105.5 62.751 Q 107 54.001 108.5 45.501 Q 110 37.001 110 33.001 Q 110 20.501 98.5 15.251 Q 87 10.001 64.5 10.001 Q 53 10.001 40.25 14.501 Q 27.5 19.001 18.75 26.251 Q 10 33.501 9.5 42.501 Q 12.5 50.001 24.25 54.001 Q 36 58.001 45 58.001 Q 51.5 58.001 61.25 56.251 Q 71 54.501 84.5 51.001 L 87.5 55.501 Q 83.5 70.001 81.5 83.501 Q 79.5 97.001 79.5 109.001 Q 79.5 123.001 86.5 135.501 Q 93.5 148.001 106 148.001 Q 118 148.001 142 144.751 Q 166 141.501 197.25 138.251 Q 228.5 135.001 261 135.001 Q 302.5 135.001 331.5 140.751 Q 360.5 146.501 378.5 161.501 Q 396.5 176.501 404.75 203.251 Q 413 230.001 413 272.001 Q 413 287.001 411 306.251 Q 409 325.501 407 343.501 Q 405 361.501 405 373.501 Q 405 397.501 414 421.251 Q 423 445.001 438.25 464.001 Q 453.5 483.001 472 493.501 Z M 61.5 32.001 Q 53.5 32.001 53.5 24.501 Q 53.5 16.501 61.5 16.501 Q 69 16.501 69 24.501 Q 69 27.501 66.75 29.751 Q 64.5 32.001 61.5 32.001 Z"/>
  </g>
</svg>

<svg width="486" height="506.001" viewBox="0 0 496 516.001" xmlns="http://www.w3.org/2000/svg"><path d="m486 493.501-12 12.5q-33-19.5-56-53.25t-23-82.25q0-11.5 2-29.25t4-36.5q2-18.75 2-32.25 0-51.5-14.25-79t-45.25-38q-31-10.5-82.5-10.5-18.5 0-42.25 2t-47.25 4.25q-23.5 2.25-41.75 4.25t-25.75 2q-16 0-25-13t-9-36q0-8.5 2-21.5t5.5-24q-7 2-15 3.5t-17.5 1.5q-7 0-16-1.25t-17-6.5q-8-5.25-12-17.25 1-15.5 12-25t25.75-13.75Q52.5.001 64.5.001q23.5 0 39.5 6.75t16 26.25q0 13.5-3.5 23.5t-3.5 19.5q0 15 5.25 21t12.25 6q8 0 25.25-3t40-6.75q22.75-3.75 47.25-6.75t46.5-3q35.5 0 66.5 5.25t54.75 19.75q23.75 14.5 37.25 41.5t13.5 70q0 19.5-3.75 39.25t-7.5 41.25q-3.75 21.5-3.75 46 0 44.5 10.5 82.5t29 64.5zm-14 0 2-3q-21.5-34.5-29.5-68.25t-8-72.75q0-25.5 4-48.25t7.75-43.25q3.75-20.5 3.75-38 0-49.5-20.25-77t-56.25-38.75q-36-11.25-83.5-11.25-20 0-44.5 2.75t-48.5 6.5q-24 3.75-42.25 6.5t-25.75 2.75q-27 0-27-35.5 0-4.5 1.5-13.25t3-17.25q1.5-8.5 1.5-12.5 0-12.5-11.5-17.75t-34-5.25q-11.5 0-24.25 4.5t-21.5 11.75Q10 33.501 9.5 42.501q3 7.5 14.75 11.5t20.75 4q6.5 0 16.25-1.75t23.25-5.25l3 4.5q-4 14.5-6 28t-2 25.5q0 14 7 26.5t19.5 12.5q12 0 36-3.25t55.25-6.5q31.25-3.25 63.75-3.25 41.5 0 70.5 5.75t47 20.75q18 15 26.25 41.75t8.25 68.75q0 15-2 34.25t-4 37.25q-2 18-2 30 0 24 9 47.75t24.25 42.75q15.25 19 33.75 29.5zM61.5 32.001q-8 0-8-7.5 0-8 8-8 7.5 0 7.5 8 0 3-2.25 5.25t-5.25 2.25z" transform="translate(5 5)" stroke-linecap="round" fill-rule="evenodd" font-size="12" stroke="#000" stroke-width="3mm" style="stroke:#000;stroke-width:3mm;fill:#000"/></svg>
